X: 31325
T: Paddy McGinty's
R: barndance
M: 4/4
K: Gmajor
|:D/ (3GBd|g2 f2 e>dB>d|e2 E2 E2 A>G|F>A D2 D>cB>A|G>FG>B d>G (3Bcd|
g2 f2 e>dB>d|e2 E2 E2 A>G|F>DC>D E>D (3DEF|G2 B2 G3/2:|
|:D/ (3d^c=c|B2 B>A G2 G>A|B>^AB>c d3 B|c2 c>B A2 A>B|c>Bc>d e2 (3d^c=c|
B2 B>A G2 G>A|B>^AB>c d2 D2|F>gf>e (3ded (3cBA|G2 g2 G3/2:|

